build/svg/cmd/sc_formfilternavigator.svg

<?xml version="1.0" encoding="UTF-8" standalone="no"?>
<svg
   xmlns:dc="http://purl.org/dc/elements/1.1/"
   xmlns:cc="http://creativecommons.org/ns#"
   xmlns:rdf="http://www.w3.org/1999/02/22-rdf-syntax-ns#"
   xmlns:svg="http://www.w3.org/2000/svg"
   xmlns="http://www.w3.org/2000/svg"
   xmlns:xlink="http://www.w3.org/1999/xlink"
   xmlns:sodipodi="http://sodipodi.sourceforge.net/DTD/sodipodi-0.dtd"
   xmlns:inkscape="http://www.inkscape.org/namespaces/inkscape"
   viewBox="0 0 16 16"
   version="1.1"
   id="svg6"
   sodipodi:docname="sc_formfilternavigator.svg"
   inkscape:export-filename="/home/jupiter007/Libreoffice yaru theme fullcolor/build/cmd/sc_formfilternavigator.png"
   inkscape:export-xdpi="96"
   inkscape:export-ydpi="96"
   inkscape:version="0.92.5 (2060ec1f9f, 2020-04-08)">
  <metadata
     id="metadata12">
    <rdf:RDF>
      <cc:Work
         rdf:about="">
        <dc:format>image/svg+xml</dc:format>
        <dc:type
           rdf:resource="http://purl.org/dc/dcmitype/StillImage" />
      </cc:Work>
    </rdf:RDF>
  </metadata>
  <defs
     id="defs10">
    <linearGradient
       inkscape:collect="always"
       xlink:href="#linearGradient4195-3"
       id="linearGradient8588-0-1-5"
       gradientUnits="userSpaceOnUse"
       gradientTransform="matrix(0.32450491,0,0,0.32450504,2.9292843,-77.307202)"
       x1="15.626007"
       y1="259.80243"
       x2="34.115711"
       y2="284.45538" />
    <linearGradient
       inkscape:collect="always"
       id="linearGradient4195-3">
      <stop
         style="stop-color:#325fd1;stop-opacity:1"
         offset="0"
         id="stop4197-6" />
      <stop
         style="stop-color:#6e98ff;stop-opacity:1"
         offset="1"
         id="stop4199-7" />
    </linearGradient>
  </defs>
  <sodipodi:namedview
     pagecolor="#ffffff"
     bordercolor="#666666"
     borderopacity="1"
     objecttolerance="10"
     gridtolerance="10"
     guidetolerance="10"
     inkscape:pageopacity="0"
     inkscape:pageshadow="2"
     inkscape:window-width="1920"
     inkscape:window-height="1011"
     id="namedview8"
     showgrid="false"
     inkscape:zoom="14.75"
     inkscape:cx="0.54237288"
     inkscape:cy="7.7966102"
     inkscape:window-x="0"
     inkscape:window-y="32"
     inkscape:window-maximized="1"
     inkscape:current-layer="svg6" />
  <path
     sodipodi:nodetypes="ccccccccccccc"
     id="path825"
     d="m 3,2.0000309 -1.0000001,1 v 1.3125 L 6,9.9687809 v 0.03125 2 l 3.9999998,2 v -4 -0.03125 L 14,4.3125309 v -1.3125 l -1,-1 z"
     style="opacity:0.6;fill:#000000;stroke:#000000;stroke-width:2;stroke-linejoin:round;stroke-miterlimit:4;stroke-dasharray:none"
     inkscape:connector-curvature="0" />
  <path
     inkscape:connector-curvature="0"
     style="fill:#ffffff"
     d="m 3,2.0000309 -1.0000001,1 v 1.3125 L 6,9.9687809 v 0.03125 2 l 3.9999998,2 v -4 -0.03125 L 14,4.3125309 v -1.3125 l -1,-1 z"
     id="path2"
     sodipodi:nodetypes="ccccccccccccc" />
  <path
     inkscape:connector-curvature="0"
     style="fill:#762572"
     d="m 14,8.0000004 -3,1 c -1.0471974,0 -1.9999994,0.9528 -1.9999994,1.9999996 l -1,3 L 11,13 c 1.047198,0 2,-0.9528 2,-2 z M 11,10 c 0.523599,0 1,0.4764 1,1 0,0.5236 -0.476401,1 -1,1 -0.523599,0 -1.0000004,-0.4764 -1.0000004,-1 0,-0.5236 0.4764014,-1 1.0000004,-1 z"
     id="path4-0" />
  <circle
     style="display:inline;opacity:1;fill:url(#linearGradient8588-0-1-5);fill-opacity:1;stroke:none;stroke-width:1.92605233;stroke-linecap:round;stroke-linejoin:round;stroke-miterlimit:4;stroke-dasharray:none;stroke-opacity:1;enable-background:new"
     id="path9498-6-5-6-8"
     cx="11"
     cy="11"
     r="5" />
  <path
     sodipodi:nodetypes="cccc"
     inkscape:connector-curvature="0"
     id="path1004"
     d="M 9.9999996,10 8.0000006,14 12,12 Z"
     style="color:#000000;display:inline;overflow:visible;visibility:visible;opacity:1;fill:#dfdfdf;fill-opacity:1;fill-rule:nonzero;stroke:none;stroke-width:0.49999997;stroke-linecap:butt;stroke-linejoin:miter;stroke-miterlimit:4;stroke-dasharray:none;stroke-dashoffset:0;stroke-opacity:1;marker:none;enable-background:accumulate"
     inkscape:transform-center-x="49.43906"
     inkscape:transform-center-y="49.439082" />
  <path
     style="color:#000000;display:inline;overflow:visible;visibility:visible;opacity:1;fill:#e93549;fill-opacity:1;fill-rule:nonzero;stroke:none;stroke-width:0.49999997;stroke-linecap:butt;stroke-linejoin:miter;stroke-miterlimit:4;stroke-dasharray:none;stroke-dashoffset:0;stroke-opacity:1;marker:none;enable-background:accumulate"
     d="M 9.9999996,10 14,8.0000004 12,12 Z"
     id="path1002"
     inkscape:connector-curvature="0"
     sodipodi:nodetypes="cccc"
     inkscape:transform-center-x="-49.439085"
     inkscape:transform-center-y="-49.439063" />
  <circle
     style="color:#000000;display:inline;overflow:visible;visibility:visible;opacity:1;fill:#f2f2f2;fill-opacity:1;fill-rule:nonzero;stroke:none;stroke-width:0.20000002;stroke-linecap:butt;stroke-linejoin:miter;stroke-miterlimit:4;stroke-dasharray:none;stroke-dashoffset:0;stroke-opacity:1;marker:none;enable-background:accumulate"
     id="circle1008"
     cx="11.000002"
     cy="11.000002"
     transform="matrix(0,1,1,0,0,0)"
     r="1" />
</svg>

<svg xmlns="http://www.w3.org/2000/svg" xmlns:xlink="http://www.w3.org/1999/xlink" viewBox="0 0 16 16"><defs><linearGradient xlink:href="#a" id="b" gradientUnits="userSpaceOnUse" gradientTransform="matrix(.3245 0 0 .3245 2.93 -77.307)" x1="15.626" y1="259.802" x2="34.116" y2="284.455"/><linearGradient id="a"><stop offset="0" stop-color="#325fd1"/><stop offset="1" stop-color="#6e98ff"/></linearGradient></defs><path d="M3 2L2 3v1.313l4 5.656V12l4 2V9.969l4-5.656V3l-1-1z" opacity=".6" stroke="#000" stroke-width="2" stroke-linejoin="round"/><path d="M3 2L2 3v1.313l4 5.656V12l4 2V9.969l4-5.656V3l-1-1z" fill="#fff"/><path d="M14 8l-3 1c-1.047 0-2 .953-2 2l-1 3 3-1c1.047 0 2-.953 2-2zm-3 2c.524 0 1 .476 1 1s-.476 1-1 1-1-.476-1-1 .476-1 1-1z" fill="#762572"/><circle cx="11" cy="11" r="5" fill="url(#b)"/><path d="M10 10l-2 4 4-2z" style="marker:none" color="#000" overflow="visible" fill="#dfdfdf"/><path style="marker:none" d="M10 10l4-2-2 4z" color="#000" overflow="visible" fill="#e93549"/><circle style="marker:none" cx="11" cy="11" transform="matrix(0 1 1 0 0 0)" r="1" color="#000" overflow="visible" fill="#f2f2f2"/></svg>
